assets/icons/play.svg

<svg xml:space="preserve" fill="#ebebeb" style="fill-rule:evenodd;clip-rule:evenodd;stroke-linecap:round;stroke-linejoin:round" viewBox="0 0 800 800" xmlns="http://www.w3.org/2000/svg"><path d="M3 7.206v9.588c0 1.006 0 1.508.199 1.741.172.202.431.31.696.289.305-.024.661-.38 1.372-1.091l4.794-4.794c.329-.329.493-.493.555-.682a.84.84 0 0 0 0-.514c-.062-.189-.226-.353-.555-.682L5.267 6.267C4.556 5.556 4.2 5.2 3.895 5.176a.83.83 0 0 0-.696.289C3 5.698 3 6.2 3 7.206" style="fill:none;fill-rule:nonzero;stroke:#fff;stroke-width:2px" transform="translate(172.397)scale(33.3333)"/></svg>

<?xml version="1.0" encoding="UTF-8" standalone="no"?>
<!DOCTYPE svg PUBLIC "-//W3C//DTD SVG 1.1//EN" "http://www.w3.org/Graphics/SVG/1.1/DTD/svg11.dtd">
<svg width="100%" height="100%" viewBox="0 0 800 800" version="1.1" xmlns="http://www.w3.org/2000/svg" xmlns:xlink="http://www.w3.org/1999/xlink" xml:space="preserve" xmlns:serif="http://www.serif.com/" style="fill-rule:evenodd;clip-rule:evenodd;stroke-linecap:round;stroke-linejoin:round;">
    <g transform="matrix(33.3333,0,0,33.3333,172.397,0.00047148)">
        <path d="M3,7.206L3,16.794C3,17.8 3,18.302 3.199,18.535C3.371,18.737 3.63,18.845 3.895,18.824C4.2,18.8 4.556,18.444 5.267,17.733L10.061,12.939C10.39,12.61 10.554,12.446 10.616,12.257C10.67,12.09 10.67,11.91 10.616,11.743C10.554,11.554 10.39,11.39 10.061,11.061L5.267,6.267C4.556,5.556 4.2,5.2 3.895,5.176C3.63,5.156 3.371,5.263 3.199,5.465C3,5.698 3,6.2 3,7.206Z" style="fill:none;fill-rule:nonzero;stroke:white;stroke-width:2px;"/>
    </g>
</svg>
